contributed-vectors/nanoleaf.svg

<svg width="192" height="192" viewBox="0 0 192 192" fill="none" xmlns="http://www.w3.org/2000/svg">
<g clip-path="url(#clip0)">
<path fill-rule="evenodd" clip-rule="evenodd" d="M29 19H162C167.5 19 172 23.5 172 29V162C172 167.5 167.5 172 162 172H29C23.5 172 19 167.5 19 162V29C19 23.5 23.5 19 29 19Z" fill="#98DC9A"/>
<path d="M104.8 97.7C106.9 101 110.8 102.3 113.6 100.6C116.4 98.9 117 94.8 114.9 91.6C112.8 88.3 108.9 87 106.1 88.7C103.3 90.4 102.7 94.4 104.8 97.7ZM86.3999 108.9C88.4999 112.2 92.3999 113.5 95.1999 111.8C97.9999 110.1 98.5999 106 96.4999 102.8C94.3999 99.5 90.4999 98.2 87.6999 99.9C84.8999 101.6 84.2999 105.6 86.3999 108.9ZM85.3999 87.1C87.4999 90.4 91.3999 91.7 94.1999 90C96.9999 88.3 97.5999 84.2 95.4999 80.9C93.3999 77.6 89.4999 76.3 86.6999 78C83.8999 79.8 83.2999 83.8 85.3999 87.1ZM120.1 131.8C116 133.8 116 121.6 113.1 123.8C99.8999 132.5 98.6999 130.3 93.3999 128.4C86.2999 126.3 69.1999 119.3 63.7999 108.4C58.4999 94.7 62.7999 73.9 63.4999 70.8C65.6999 61.9 70.9999 60.3 75.0999 59.4C90.4999 57.1 113.9 65.4 118.6 69.6C124.7 74.7 131.8 104.4 129 113.2C128.1 116 118.8 118.5 117.8 120.6C116.2 123 124.6 129.9 120.1 131.8Z" fill="white"/>
</g>
<defs>
<clipPath id="clip0">
<rect width="192" height="192" fill="white"/>
</clipPath>
</defs>
</svg>

<svg xmlns="http://www.w3.org/2000/svg" width="192" height="192" fill="none"><g clip-path="url(#a)"><path fill="#98DC9A" fill-rule="evenodd" d="M29 19h133c5.5 0 10 4.5 10 10v133c0 5.5-4.5 10-10 10H29c-5.5 0-10-4.5-10-10V29c0-5.5 4.5-10 10-10Z" clip-rule="evenodd"/><path fill="#fff" d="M104.8 97.7c2.1 3.3 6 4.6 8.8 2.9 2.8-1.7 3.4-5.8 1.3-9-2.1-3.3-6-4.6-8.8-2.9-2.8 1.7-3.4 5.7-1.3 9Zm-18.4 11.2c2.1 3.3 6 4.6 8.8 2.9 2.8-1.7 3.4-5.8 1.3-9-2.1-3.3-6-4.6-8.8-2.9-2.8 1.7-3.4 5.7-1.3 9Zm-1-21.8c2.1 3.3 6 4.6 8.8 2.9 2.8-1.7 3.4-5.8 1.3-9.1-2.1-3.3-6-4.6-8.8-2.9-2.8 1.8-3.4 5.8-1.3 9.1Zm34.7 44.7c-4.1 2-4.1-10.2-7-8-13.2 8.7-14.4 6.5-19.7 4.6-7.1-2.1-24.2-9.1-29.6-20-5.3-13.7-1-34.5-.3-37.6 2.2-8.9 7.5-10.5 11.6-11.4 15.4-2.3 38.8 6 43.5 10.2 6.1 5.1 13.2 34.8 10.4 43.6-.9 2.8-10.2 5.3-11.2 7.4-1.6 2.4 6.8 9.3 2.3 11.2Z"/></g><defs><clipPath id="a"><path fill="#fff" d="M0 0h192v192H0z"/></clipPath></defs></svg>
